X:44
T:Christy Barry's
R:jig
S:https://thesession.org/tunes/843
M:6/8
L:1/8
Z:Jon Kiparsky
K:Gmajor
G3 BAG|A2B d2e|ged BAG|A3 BGE|
G3 BAG |A2B d2e|ged BAG|A2G G3:|
g3 efg|a3 d2e|ged BAG|A3 BGE|
G3 BAG |A2B d2e|ged BAG|A2G G3:|

